apps/web/src/assets/svgs/group.svg

<?xml version="1.0" encoding="UTF-8" standalone="no"?>
<!-- Created with Inkscape (http://www.inkscape.org/) -->

<svg
   width="8mm"
   height="8mm"
   viewBox="0 0 8 8"
   version="1.1"
   id="svg1"
   sodipodi:docname="group_flat.svg"
   inkscape:version="1.3.2 (091e20ef0f, 2023-11-25)"
   xmlns:inkscape="http://www.inkscape.org/namespaces/inkscape"
   xmlns:sodipodi="http://sodipodi.sourceforge.net/DTD/sodipodi-0.dtd"
   xmlns="http://www.w3.org/2000/svg"
   xmlns:svg="http://www.w3.org/2000/svg">
  <sodipodi:namedview
     id="namedview1"
     pagecolor="#ffffff"
     bordercolor="#000000"
     borderopacity="0.25"
     inkscape:showpageshadow="2"
     inkscape:pageopacity="0.0"
     inkscape:pagecheckerboard="0"
     inkscape:deskcolor="#d1d1d1"
     inkscape:document-units="mm"
     inkscape:zoom="17.23142"
     inkscape:cx="13.753945"
     inkscape:cy="10.097833"
     inkscape:window-width="2560"
     inkscape:window-height="1515"
     inkscape:window-x="0"
     inkscape:window-y="1415"
     inkscape:window-maximized="1"
     inkscape:current-layer="layer1" />
  <defs
     id="defs1" />
  <g
     inkscape:label="Capa 1"
     inkscape:groupmode="layer"
     id="layer1"
     transform="translate(-178.08611,-56.289486)">
    <g
       id="g240-3-1"
       transform="translate(60.342609,-237.72243)">
      <g
         id="g239-5-7"
         transform="matrix(0.97303924,0,0,0.97310292,89.046307,7.57135)">
        <path
           id="rect238-6-7"
           style="color:#000000;fill:#000000;stroke-linecap:round;stroke-linejoin:round;stroke-dasharray:0.632291, 1.26458;-inkscape-stroke:none"
           d="M 32.081889 294.3574 A 0.31614551 0.31614551 0 0 0 31.767488 294.67391 A 0.31614551 0.31614551 0 0 0 32.081889 294.99041 L 32.71494 294.99041 A 0.31614551 0.31614551 0 0 0 33.031465 294.67391 A 0.31614551 0.31614551 0 0 0 32.71494 294.3574 L 32.081889 294.3574 z M 33.98051 294.3574 A 0.31614551 0.31614551 0 0 0 33.663984 294.67391 A 0.31614551 0.31614551 0 0 0 33.98051 294.99041 L 34.611436 294.99041 A 0.31614551 0.31614551 0 0 0 34.927961 294.67391 A 0.31614551 0.31614551 0 0 0 34.611436 294.3574 L 33.98051 294.3574 z M 35.799468 294.48963 A 0.31614551 0.31614551 0 0 0 35.562605 294.6994 A 0.31614551 0.31614551 0 0 0 35.761761 295.09981 L 35.781411 295.10565 L 35.867447 295.13858 L 35.951358 295.17787 L 36.033144 295.21876 L 36.113338 295.26603 L 36.189283 295.31435 L 36.238142 295.34993 A 0.31614551 0.31614551 0 0 0 36.679472 295.27346 A 0.31614551 0.31614551 0 0 0 36.603527 294.83428 L 36.55095 294.79499 A 0.31617712 0.31617712 0 0 0 36.537142 294.78702 L 36.447389 294.72861 A 0.31617712 0.31617712 0 0 0 36.433581 294.72064 L 36.341703 294.66754 A 0.31617712 0.31617712 0 0 0 36.327895 294.65957 L 36.2323 294.61071 A 0.31617712 0.31617712 0 0 0 36.219023 294.60275 L 36.11918 294.55973 A 0.31617712 0.31617712 0 0 0 36.105372 294.55389 L 36.003935 294.513 A 0.31617712 0.31617712 0 0 0 35.990127 294.50875 L 35.963041 294.50026 A 0.31614551 0.31614551 0 0 0 35.799468 294.48963 z M 31.09142 294.60115 A 0.31614551 0.31614551 0 0 0 30.931564 294.63461 L 30.931564 294.63302 L 30.878987 294.6601 A 0.31617712 0.31617712 0 0 0 30.865178 294.66807 L 30.771708 294.72117 A 0.31617712 0.31617712 0 0 0 30.760024 294.72914 L 30.668147 294.78755 A 0.31617712 0.31617712 0 0 0 30.656463 294.79552 L 30.568303 294.85818 A 0.31617712 0.31617712 0 0 0 30.556619 294.86615 L 30.472708 294.93253 A 0.31617712 0.31617712 0 0 0 30.461024 294.94262 L 30.380831 295.01272 A 0.31617712 0.31617712 0 0 0 30.369147 295.02281 L 30.342062 295.04989 A 0.31614551 0.31614551 0 0 0 30.329847 295.49756 A 0.31614551 0.31614551 0 0 0 30.77755 295.50712 L 30.800917 295.48588 L 30.868896 295.42534 L 30.941654 295.36852 L 31.015475 295.31595 L 31.093544 295.26709 L 31.173738 295.22036 L 31.21888 295.19699 A 0.31614551 0.31614551 0 0 0 31.355368 294.77321 A 0.31614551 0.31614551 0 0 0 31.09142 294.60115 z M 37.234985 295.76096 A 0.31614551 0.31614551 0 0 0 37.071942 295.77955 A 0.31614551 0.31614551 0 0 0 36.894561 296.18952 L 36.914211 296.23838 L 36.94342 296.32812 L 36.968912 296.41787 L 36.990155 296.50974 L 37.007681 296.60321 L 37.019365 296.69933 L 37.019365 296.71101 A 0.31614551 0.31614551 0 0 0 37.359258 297.00202 A 0.31614551 0.31614551 0 0 0 37.650291 296.66375 L 37.648167 296.64463 A 0.31617712 0.31617712 0 0 0 37.646574 296.6287 L 37.632766 296.51771 A 0.31617712 0.31617712 0 0 0 37.630641 296.50178 L 37.610991 296.39238 A 0.31617712 0.31617712 0 0 0 37.607274 296.37698 L 37.583906 296.26971 A 0.31617712 0.31617712 0 0 0 37.580188 296.25378 L 37.548854 296.14863 A 0.31617712 0.31617712 0 0 0 37.544606 296.1327 L 37.509554 296.02914 A 0.31617712 0.31617712 0 0 0 37.505837 296.01587 L 37.482469 295.95904 A 0.31614551 0.31614551 0 0 0 37.234985 295.76096 z M 31.173738 295.80292 A 0.30003001 0.30003001 0 0 0 30.874738 296.10349 L 30.874738 298.91008 A 0.30003001 0.30003001 0 0 0 31.173738 299.20906 L 32.756895 299.20906 A 0.30000001 0.30000001 0 0 0 32.752115 299.24039 C 32.752112 300.27669 33.598519 301.12295 34.634804 301.12295 C 35.671089 301.12295 36.517496 300.27669 36.517492 299.24039 C 36.517489 298.20411 35.671086 297.35729 34.634804 297.35729 C 34.514231 297.35729 34.39599 297.36921 34.281102 297.39128 L 34.281102 296.10349 A 0.30003001 0.30003001 0 0 0 33.98051 295.80292 L 31.173738 295.80292 z M 29.99792 296.04507 A 0.31614551 0.31614551 0 0 0 29.619258 296.28139 L 29.597484 296.37698 A 0.31617712 0.31617712 0 0 0 29.595891 296.39238 L 29.576241 296.50178 A 0.31617712 0.31617712 0 0 0 29.571992 296.51771 L 29.558715 296.6287 A 0.31617712 0.31617712 0 0 0 29.556591 296.64463 L 29.548624 296.75774 A 0.31617712 0.31617712 0 0 0 29.548624 296.77314 L 29.544907 296.88838 A 0.31617712 0.31617712 0 0 0 29.544907 296.89634 L 29.544907 296.98078 A 0.31614551 0.31614551 0 0 0 29.861432 297.29516 A 0.31614551 0.31614551 0 0 0 30.177426 296.98078 L 30.177426 296.90059 L 30.179551 296.79704 L 30.187517 296.69933 L 30.199201 296.60374 L 30.216726 296.50974 L 30.236377 296.42424 A 0.31614551 0.31614551 0 0 0 29.99792 296.04507 z M 31.474861 296.40247 L 33.68151 296.40247 L 33.68151 298.6095 L 31.474861 298.6095 L 31.474861 296.40247 z M 37.34545 297.63503 A 0.31614551 0.31614551 0 0 0 37.029456 297.95101 L 37.029456 298.58401 A 0.31614551 0.31614551 0 0 0 37.34545 298.90052 A 0.31614551 0.31614551 0 0 0 37.661975 298.58401 L 37.661975 297.95101 A 0.31614551 0.31614551 0 0 0 37.34545 297.63503 z M 29.861432 297.92764 A 0.31614551 0.31614551 0 0 0 29.544907 298.24414 L 29.544907 298.87715 A 0.31614551 0.31614551 0 0 0 29.861432 299.19313 A 0.31614551 0.31614551 0 0 0 30.177957 298.87715 L 30.177957 298.24414 A 0.31614551 0.31614551 0 0 0 29.861432 297.92764 z M 34.634804 297.95685 C 35.346822 297.95685 35.915772 298.52838 35.915775 299.24039 C 35.915777 299.95242 35.346827 300.5234 34.634804 300.5234 C 33.922781 300.5234 33.351706 299.95242 33.351708 299.24039 A 0.30000001 0.30000001 0 0 0 33.346397 299.20906 L 33.98051 299.20906 A 0.30003001 0.30003001 0 0 0 34.281102 298.91008 L 34.281102 298.00677 C 34.393273 297.97466 34.511642 297.95685 34.634804 297.95685 z M 37.345981 299.53087 L 37.34545 299.5314 A 0.31614551 0.31614551 0 0 0 37.029456 299.84791 L 37.029456 300.03696 L 37.025207 300.14052 L 37.019365 300.2361 L 37.007681 300.33222 L 36.990155 300.42197 A 0.31614551 0.31614551 0 0 0 37.246137 300.78893 A 0.31614551 0.31614551 0 0 0 37.613115 300.53296 L 37.630641 300.43525 A 0.31617712 0.31617712 0 0 0 37.632766 300.41985 L 37.646574 300.30833 A 0.31617712 0.31617712 0 0 0 37.648698 300.29293 L 37.658257 300.17981 A 0.31617712 0.31617712 0 0 0 37.658257 300.16388 L 37.660382 300.04864 A 0.31617712 0.31617712 0 0 0 37.662506 300.04068 L 37.662506 299.84738 A 0.31614551 0.31614551 0 0 0 37.345981 299.53087 z M 29.85559 299.82401 A 0.31614551 0.31614551 0 0 0 29.547031 300.14848 L 29.548624 300.16388 A 0.31617712 0.31617712 0 0 0 29.548624 300.17981 L 29.556591 300.29293 A 0.31617712 0.31617712 0 0 0 29.558715 300.30833 L 29.572523 300.41985 A 0.31617712 0.31617712 0 0 0 29.576241 300.43525 L 29.595891 300.54464 A 0.31617712 0.31617712 0 0 0 29.598015 300.56058 L 29.622976 300.66785 A 0.31617712 0.31617712 0 0 0 29.627225 300.68325 L 29.656434 300.78893 A 0.31617712 0.31617712 0 0 0 29.662276 300.80433 L 29.679802 300.86115 A 0.31614551 0.31614551 0 0 0 30.080238 301.06029 A 0.31614551 0.31614551 0 0 0 30.279394 300.65988 L 30.263993 300.6089 L 30.238501 300.51915 L 30.216726 300.42728 L 30.199201 300.33169 L 30.187517 300.2361 L 30.180082 300.14052 L 30.180082 300.13255 A 0.31614551 0.31614551 0 0 0 29.85559 299.82401 z M 36.799497 301.27537 A 0.31614551 0.31614551 0 0 0 36.496248 301.36511 L 36.472881 301.3906 L 36.406496 301.45327 L 36.337986 301.51381 L 36.265759 301.5685 L 36.189283 301.6232 L 36.113338 301.67206 L 36.07032 301.69542 A 0.31614551 0.31614551 0 0 0 35.952951 302.12664 A 0.31614551 0.31614551 0 0 0 36.384721 302.244 L 36.433581 302.21691 A 0.31617712 0.31617712 0 0 0 36.447389 302.20895 L 36.537142 302.15 A 0.31617712 0.31617712 0 0 0 36.55095 302.14204 L 36.636454 302.0799 A 0.31617712 0.31617712 0 0 0 36.650262 302.06981 L 36.73258 302.00503 A 0.31617712 0.31617712 0 0 0 36.744264 301.99494 L 36.826051 301.92484 A 0.31617712 0.31617712 0 0 0 36.836141 301.91475 L 36.914211 301.8404 A 0.31617712 0.31617712 0 0 0 36.92377 301.83084 L 36.95298 301.79951 A 0.31614551 0.31614551 0 0 0 36.94342 301.35237 L 36.94342 301.35343 A 0.31614551 0.31614551 0 0 0 36.799497 301.27537 z M 30.741967 301.46761 A 0.31614551 0.31614551 0 0 0 30.449341 301.58603 A 0.31614551 0.31614551 0 0 0 30.501918 302.02945 L 30.556619 302.07034 A 0.31617712 0.31617712 0 0 0 30.568303 302.08043 L 30.656463 302.14257 A 0.31617712 0.31617712 0 0 0 30.668147 302.15106 L 30.760024 302.20948 A 0.31617712 0.31617712 0 0 0 30.771708 302.21744 L 30.865178 302.27002 A 0.31617712 0.31617712 0 0 0 30.878987 302.27798 L 30.974581 302.32684 A 0.31617712 0.31617712 0 0 0 30.98839 302.33268 L 31.086109 302.37782 A 0.31617712 0.31617712 0 0 0 31.10151 302.38366 L 31.127002 302.39375 A 0.31614551 0.31614551 0 0 0 31.535405 302.21585 A 0.31614551 0.31614551 0 0 0 31.357492 301.80588 L 31.339966 301.79792 L 31.256055 301.76074 L 31.173738 301.71773 L 31.093544 301.67312 L 31.015475 301.62426 L 30.941654 301.56957 L 30.892795 301.53133 A 0.31614551 0.31614551 0 0 0 30.741967 301.46761 z M 32.48445 301.94714 A 0.31614551 0.31614551 0 0 0 32.167924 302.26365 A 0.31614551 0.31614551 0 0 0 32.48445 302.57803 L 33.116969 302.57803 A 0.31614551 0.31614551 0 0 0 33.433494 302.26365 A 0.31614551 0.31614551 0 0 0 33.116969 301.94714 L 32.48445 301.94714 z M 34.38307 301.94714 A 0.31614551 0.31614551 0 0 0 34.066545 302.26365 A 0.31614551 0.31614551 0 0 0 34.38307 302.57803 L 35.013466 302.57803 A 0.31614551 0.31614551 0 0 0 35.329991 302.26365 A 0.31614551 0.31614551 0 0 0 35.013466 301.94714 L 34.38307 301.94714 z " />
      </g>
    </g>
  </g>
</svg>

<svg xmlns="http://www.w3.org/2000/svg" width="8mm" height="8mm" viewBox="0 0 8 8"><path d="M32.082 294.357a.316.316 0 0 0-.315.317.316.316 0 0 0 .315.316h.633a.316.316 0 0 0 .316-.316.316.316 0 0 0-.316-.317zm1.899 0a.316.316 0 0 0-.317.317.316.316 0 0 0 .317.316h.63a.316.316 0 0 0 .317-.316.316.316 0 0 0-.317-.317zm1.818.133a.32.32 0 0 0-.236.21.316.316 0 0 0 .199.4l.02.006.085.033.084.039.082.04.08.048.076.048.05.036a.316.316 0 0 0 .44-.077.316.316 0 0 0-.075-.439l-.053-.039-.014-.008-.09-.058-.013-.008-.092-.053-.014-.008-.096-.05-.013-.007-.1-.043-.014-.006-.101-.041-.014-.004-.027-.009a.3.3 0 0 0-.164-.01m-4.708.111a.3.3 0 0 0-.16.034v-.002l-.052.027-.014.008-.093.053-.012.008-.092.059-.012.008-.088.062-.011.008-.084.067-.012.01-.08.07-.012.01-.027.027a.316.316 0 0 0-.012.448.316.316 0 0 0 .448.01l.023-.022.068-.06.073-.057.073-.053.079-.049.08-.047.045-.023a.316.316 0 0 0 .136-.424.32.32 0 0 0-.264-.172m6.144 1.16a.3.3 0 0 0-.163.019.316.316 0 0 0-.177.41l.02.048.028.09.026.09.021.092.018.093.011.096v.012a.316.316 0 0 0 .34.291.316.316 0 0 0 .291-.338l-.002-.02-.001-.015-.014-.111-.002-.016-.02-.11-.004-.015-.023-.107-.004-.016-.031-.105-.004-.016-.035-.104-.004-.013-.024-.057a.32.32 0 0 0-.247-.198m-6.061.042a.3.3 0 0 0-.3.3v2.807a.3.3 0 0 0 .3.3h1.583l-.005.03c0 1.037.847 1.883 1.883 1.883a1.887 1.887 0 0 0 1.882-1.883 1.888 1.888 0 0 0-2.236-1.849v-1.288a.3.3 0 0 0-.3-.3zm-1.176.242a.316.316 0 0 0-.379.236l-.022.096-.001.015-.02.11-.004.016-.013.11-.002.017-.008.113v.015l-.004.115v.093a.316.316 0 0 0 .316.314.316.316 0 0 0 .316-.314v-.08l.003-.104.008-.098.011-.095.018-.094.02-.086a.316.316 0 0 0-.24-.379m1.477.357h2.207v2.208h-2.207zm5.87 1.233a.316.316 0 0 0-.316.316v.633a.316.316 0 0 0 .316.317.316.316 0 0 0 .317-.317v-.633a.316.316 0 0 0-.317-.316m-7.484.293a.316.316 0 0 0-.316.316v.633a.316.316 0 0 0 .316.316.316.316 0 0 0 .317-.316v-.633a.316.316 0 0 0-.317-.316m4.774.029c.712 0 1.28.571 1.28 1.283s-.568 1.283-1.28 1.283a1.28 1.28 0 0 1-1.283-1.283l-.006-.03h.635a.3.3 0 0 0 .3-.3v-.903q.168-.049.354-.05m2.711 1.574a.316.316 0 0 0-.317.317v.189l-.004.104-.006.095-.011.096-.018.09a.316.316 0 0 0 .256.367.316.316 0 0 0 .367-.256l.018-.098.002-.015.014-.112.002-.015.01-.113v-.016l.001-.115.003-.008v-.194a.316.316 0 0 0-.317-.316m-7.49.293a.316.316 0 0 0-.309.324l.002.016v.016l.008.113.002.015.014.112.003.015.02.11.002.016.025.107.004.015.03.106.005.015.018.057a.316.316 0 0 0 .4.2.316.316 0 0 0 .2-.401l-.016-.051-.025-.09-.022-.092-.018-.095-.011-.096-.008-.095v-.008a.316.316 0 0 0-.324-.309m6.943 1.451a.32.32 0 0 0-.303.09l-.023.026-.067.062-.068.06-.072.055-.077.055-.076.05-.043.022a.316.316 0 0 0-.117.432.316.316 0 0 0 .432.117l.049-.027.013-.008.09-.059.014-.008.085-.062.014-.01.083-.065.011-.01.082-.07.01-.01.078-.075.01-.01.029-.03a.316.316 0 0 0-.01-.448v.001a.3.3 0 0 0-.144-.078m-6.057.193a.32.32 0 0 0-.293.118.316.316 0 0 0 .053.443l.055.041.011.01.088.063.012.008.092.058.012.008.093.053.014.008.096.049.013.006.098.045.016.006.025.01a.316.316 0 0 0 .408-.178.316.316 0 0 0-.178-.41l-.017-.008-.084-.037-.082-.043-.08-.045-.079-.049-.073-.054-.05-.039a.3.3 0 0 0-.15-.063m1.742.48a.316.316 0 0 0-.316.316.316.316 0 0 0 .316.314h.633a.316.316 0 0 0 .316-.314.316.316 0 0 0-.316-.317zm1.9 0a.316.316 0 0 0-.317.316.316.316 0 0 0 .316.314h.63a.316.316 0 0 0 .317-.314.316.316 0 0 0-.317-.317z" style="color:#000;fill:#000;stroke-linecap:round;stroke-linejoin:round;stroke-dasharray:.632291,1.26458;-inkscape-stroke:none" transform="matrix(.97304 0 0 .9731 -28.697 -286.44)"/></svg>
